bundle/image/components/fullCard/img/c2.svg

<svg width="38" height="39" viewBox="0 0 38 39" fill="none" xmlns="http://www.w3.org/2000/svg">
<path d="M5.26874 7.39048C11.9808 -0.501095 23.8684 -1.45346 31.76 5.25865C34.054 7.20772 35.8002 9.59956 36.9398 12.3667L34.8892 13.2139C33.8802 10.7788 32.3454 8.67933 30.3261 6.94951C23.3668 1.02497 12.8841 1.86521 6.96882 8.82941C1.04428 15.7886 1.88453 26.2713 8.84872 32.1867C15.8129 38.102 26.2907 37.271 32.206 30.3068C33.6591 28.6024 34.7255 26.6661 35.3988 24.5538L37.5161 25.2179C36.759 27.6183 35.5394 29.8171 33.906 31.7457C27.1939 39.6372 15.3063 40.5896 7.41477 33.8775C-0.476809 27.1654 -1.42917 15.2778 5.28294 7.38622L5.26874 7.39048Z" fill="white"/>
</svg>

<svg width="38" height="39" fill="none" xmlns="http://www.w3.org/2000/svg"><path d="M5.269 7.39C11.98-.5 23.869-1.453 31.76 5.26a18.49 18.49 0 0 1 5.18 7.108l-2.05.847a16.484 16.484 0 0 0-4.564-6.264C23.366 1.025 12.884 1.865 6.97 8.83c-5.925 6.959-5.084 17.441 1.88 23.357 6.964 5.915 17.442 5.084 23.357-1.88a16.567 16.567 0 0 0 3.193-5.753l2.117.664c-.757 2.4-1.977 4.6-3.61 6.528-6.712 7.891-18.6 8.844-26.491 2.131-7.892-6.712-8.844-18.6-2.132-26.49l-.014.003z" fill="#fff"/></svg>
